X: 1
T: Elverton Grove
M:4/4
L:1/8
Z:Alf Warnock - alf0@rogers.com
K:A
E2|"A"A2f2 e2d2|"A"c4 "E"B3A/2B/2|"A"c2E2 "E"B2E2|"A"c2E2 "E"B2E2|
"A"A2f2 e2d2|c4 "E"B3c|"D"d2cB "E"c2BA|"A"A6:|
d2|"F#m"c2B2 "C#"A2G2|"F#m"F4 f4| c2B2 "C#"A2G2|"F#m"F^EFG F2d2|
c2B2 "C#"A2G2|"F#m"F4 "D"f4| "F#m"c2B2 "C#"A2G2|"F#m"F6fg|
"F#m"a2gf "E"g2fe|"D"f2ed "A"e2dc|"Bm"d2cB "A"c2BG|
"E"BAGF E2e2|"A"e6e2|"E"e6fg|
"F#m"a2gf "E"g2fe|"D"f2ed "A"e2dc|"D"d2cB "A"c2BA|
"E"BAGF E2e2|"D"f2A2 "A"e2A2|"E"d4 "F#m"c4|
"D"FGA2 "E"E2G2|"A"A6|]
